copytrade/img/icomoon/presention.svg

<svg width="24" height="24" viewBox="0 0 24 24" fill="none" xmlns="http://www.w3.org/2000/svg">
<path fill-rule="evenodd" clip-rule="evenodd" d="M3.75 3C3.33579 3 3 3.33579 3 3.75C3 4.16421 3.33579 4.5 3.75 4.5H3.8252L3.82542 13.8333L3.82543 13.8373C3.83025 14.7536 4.07575 15.5761 4.66764 16.1664C5.25987 16.7571 6.08308 17 7.00042 17H11.3335V18.2865L8.41475 19.7458C8.04427 19.9311 7.8941 20.3816 8.07934 20.7521C8.26459 21.1226 8.71509 21.2727 9.08557 21.0875L12.0834 19.5886L15.0811 21.0874C15.4516 21.2726 15.9021 21.1225 16.0873 20.752C16.2726 20.3815 16.1224 19.931 15.7519 19.7458L12.8335 18.2866V17H17.1588C18.0758 17 18.8996 16.7573 19.4912 16.1657C20.0827 15.5742 20.3254 14.7504 20.3254 13.8333V4.5H20.4167C20.8309 4.5 21.1667 4.16421 21.1667 3.75C21.1667 3.33579 20.8309 3 20.4167 3H3.75ZM16.4087 8.26933C16.6742 8.58729 16.6317 9.06025 16.3137 9.32572L13.6887 11.5174L13.6766 11.5273C13.4196 11.7329 13.0866 11.8339 12.7472 11.7773C12.405 11.7203 12.1183 11.5131 11.9419 11.2226L11.9399 11.2192L11.9399 11.2192L11.139 9.88431L8.8137 11.8257C8.49575 12.0912 8.02278 12.0486 7.75731 11.7307C7.49184 11.4127 7.53439 10.9398 7.85235 10.6743L10.4756 8.48406L10.4767 8.48319C10.738 8.26414 11.0795 8.15985 11.4255 8.22072C11.7696 8.28127 12.0515 8.49319 12.2241 8.77744L12.2261 8.78079L12.2261 8.7808L13.0271 10.1157L15.3523 8.17429C15.6703 7.90882 16.1433 7.95137 16.4087 8.26933Z" fill="#A6ACB7"/>
</svg>

<svg width="24" height="24" fill="none" xmlns="http://www.w3.org/2000/svg"><path fill-rule="evenodd" clip-rule="evenodd" d="M3.75 3a.75.75 0 000 1.5h.075v9.337c.005.917.25 1.74.843 2.33C5.26 16.756 6.083 17 7 17h4.334v1.287l-2.92 1.459a.75.75 0 00.672 1.341l2.997-1.498 2.998 1.498a.75.75 0 10.67-1.341l-2.917-1.46V17h4.325c.917 0 1.74-.243 2.332-.834.592-.592.834-1.416.834-2.333V4.5h.092a.75.75 0 000-1.5H3.75zm12.659 5.27a.75.75 0 01-.095 1.056l-2.625 2.191-.012.01c-.257.206-.59.307-.93.25a1.167 1.167 0 01-.805-.554l-.002-.004-.801-1.335-2.325 1.942a.75.75 0 01-.962-1.152l2.624-2.19a1.16 1.16 0 01.95-.263c.344.06.626.272.798.556l.002.004.801 1.335 2.325-1.942a.75.75 0 011.057.095z" fill="#A6ACB7"/></svg>
